build/images/questions/tg.svg

<svg width="29" height="25" viewBox="0 0 29 25" fill="none" xmlns="http://www.w3.org/2000/svg">
<path d="M27.9297 2.12273L27.9296 2.12342L23.6295 22.4893C23.4809 23.1449 23.245 23.4054 23.0523 23.4938C22.8662 23.5791 22.5435 23.5841 22.0165 23.2932L15.4893 18.4628L15.149 18.211L14.8445 18.5051L11.6825 21.5592L11.6824 21.5591L11.6755 21.566C11.5003 21.742 11.3866 21.8525 11.2586 21.9309L11.6684 16.097L23.6626 5.21248C23.663 5.21207 23.6635 5.21166 23.664 5.21125C23.8285 5.06356 24.0123 4.84003 24.0226 4.5509C24.0356 4.18533 23.7786 3.96548 23.5501 3.88365C23.3387 3.80795 23.1046 3.81825 22.8975 3.86553C22.6828 3.91453 22.4564 4.01203 22.2359 4.15869L7.42234 13.5261L1.17957 11.5638L1.17923 11.5637C0.870122 11.4668 0.682139 11.3537 0.583128 11.2602C0.494305 11.1763 0.499568 11.1338 0.500204 11.1287C0.500224 11.1285 0.500239 11.1284 0.500247 11.1283C0.501884 11.1096 0.520479 11.0199 0.682985 10.876C0.842804 10.7344 1.10692 10.5734 1.5039 10.4173C1.5043 10.4172 1.5047 10.417 1.5051 10.4169L26.7818 0.637247C26.7825 0.637001 26.7831 0.636754 26.7838 0.636509C27.2502 0.46144 27.573 0.549853 27.7457 0.717816C27.9266 0.893755 28.1026 1.30967 27.9297 2.12273Z" stroke="white"/>
</svg>

<svg width="29" height="25" fill="none" xmlns="http://www.w3.org/2000/svg"><path d="M27.93 2.123h0l-4.3 20.366c-.15.656-.385.916-.578 1.005-.186.085-.508.09-1.035-.2l-6.528-4.831-.34-.252-.304.294-3.163 3.054h0l-.007.007c-.175.176-.288.287-.416.365l.41-5.834L23.662 5.212h.001c.164-.148.348-.372.359-.661.013-.366-.244-.586-.473-.667a1.18 1.18 0 00-.652-.018 2.02 2.02 0 00-.662.293L7.422 13.526 1.18 11.564h0c-.31-.097-.498-.21-.597-.304-.089-.084-.083-.126-.083-.13 0 0 0 0 0 0 .002-.02.02-.11.183-.253.16-.142.424-.303.82-.459h.002L26.782.637h.002c.466-.176.789-.087.962.08.18.177.357.593.184 1.406z" stroke="#fff"/></svg>
